X:11
T:Much Wenlock
T:Pigeon on the Gate
M:4/4
L:1/8
Q:120
K:G
"Use A music chorus   (Pigeon on the Gate)"
(3DEF|G>F (3GFE D2B2|A>GF>ED2B2|c2A>cB2G>B|A>GF>E D2 (3DEF|
G>F(3GFE D2B2|A>GF>ED2B2|c>BA>G F>DE>F|G2B2G2:||
A2|B2d2B2d2|e>dc>BA3B|c>BA>G F>DE>F|A>GF>E D2A2|
B2d2B2d2|e>dc>BA3B|c>BA>G F>DE>F|G2B2G2||

